packages/foundations/assets/icons/functional/images/editing/pen_12.svg

<svg width="12" height="12" viewBox="0 0 12 12" fill="none" xmlns="http://www.w3.org/2000/svg">
<g clip-path="url(#clip0_231_196)">
<path fill-rule="evenodd" clip-rule="evenodd" d="M8.57101 1.21786C8.86244 1.21786 9.15472 1.31557 9.36901 1.50929L10.4602 2.60129C10.6744 2.81557 10.791 3.16529 10.791 3.497C10.791 3.80814 10.6744 4.13986 10.4602 4.373L4.94872 9.84671C4.75329 10.0224 4.59729 10.0807 4.28615 10.1587L1.92901 10.7621C1.87158 10.7819 1.81244 10.7819 1.75415 10.7819C1.68487 10.7848 1.6158 10.7723 1.55192 10.7453C1.48803 10.7184 1.43093 10.6776 1.38472 10.6259C1.27656 10.5167 1.21378 10.3706 1.20901 10.217V10.1193L1.79358 7.76214C1.91015 7.33357 1.96844 7.25643 2.16301 7.061L7.65558 1.58814C7.77606 1.46891 7.91902 1.37478 8.07617 1.31121C8.23331 1.24765 8.40151 1.21592 8.57101 1.21786ZM6.85672 4.10043L3.35186 7.54871L4.42329 8.639L7.92901 5.17186L6.85672 4.10043ZM8.55129 2.38614L7.69415 3.24329L8.78529 4.33443L9.64244 3.47729L8.55129 2.38614Z" fill="#1A1C1F"/>
</g>
<defs>
<clipPath id="clip0_231_196">
<rect width="12" height="12" fill="white"/>
</clipPath>
</defs>
</svg>

<svg xmlns="http://www.w3.org/2000/svg" width="12" height="12" fill="none"><g clip-path="url(#a)"><path fill="#1A1C1F" fill-rule="evenodd" d="M8.571 1.218c.291 0 .584.098.798.291l1.091 1.092c.214.215.331.564.331.896 0 .311-.117.643-.33.876L4.948 9.847c-.196.175-.352.234-.663.312l-2.357.603c-.057.02-.117.02-.175.02a.47.47 0 0 1-.37-.156.6.6 0 0 1-.175-.409v-.098l.585-2.357c.116-.428.174-.506.369-.701l5.493-5.473a1.28 1.28 0 0 1 .915-.37M6.857 4.1 3.352 7.55l1.071 1.09L7.93 5.172zM8.55 2.386l-.857.857 1.091 1.091.857-.857z" clip-rule="evenodd"/></g><defs><clipPath id="a"><path fill="#fff" d="M0 0h12v12H0z"/></clipPath></defs></svg>
